X:1
T:Polska efter Per Lööf, Lilian Höjd
R:Polska, hexatonisk?
O:Ort, Värmland
H:Troligen före 1840-talet. Ciss i första reprisen, högt andrafinger på A strängen. C i reprisen och även sänkt b (lågt förstafinger) på A strängen. Melodin kan bli meditativ.
M:3/4
L:1/8
K:C
A<A G(ABc)| A2 d<d d e | (gfe2) e<f | (defgfe) | d3 e3 :|
ef2 (def) | (geg) (fdf) | (e2>c2 A2) | (A<A) (GABc) | (cAc) (BGB) | AFD :|

